X:1
T:Title
%%score { ( 1 3 ) | ( 2 4 ) }
L:1/8
M:6/8
K:Eb
V:1 treble nm="Grand Piano"
V:3 treble 
V:2 bass 
V:4 bass 
V:1
 z3 z2[Q:1/4=99] E/F/ | G>_G=G A2 G | [EG] [DF]2- [DF]2 D/[CE]/ | [DF][_D=E][=DF] [DF]<[DB][CDA] | %4
 G3- G2 E/F/ | G>_G=G A2 G | B A2- A2 [CEA] | [B,EG][A,DF][G,E] [B,EG]2 [A,DF] | E6 | B>=AB c2 B | %10
 B2 =A ._A3 | [DA]2 [DA] [DF][EG][DA] | G6 | .c>cc d2 G |[M:7/8] [Ge]3 z z z2 | %15
[M:3/4] [EG]2 [EG] [EG]2 [DF] | [B,E]6 |] %17
V:2
 z3 z2 [E,G,]/[E,A,E]/ | [E,B,E]>[E,=A,E][E,B,E] [E,CE]2 [E,B,E] | %2
 [B,,B,] [B,,B,]2- [B,,B,]2 [B,,B,]/[B,,B,]/ | [B,,B,][B,,B,][B,,B,] [B,,B,]<[B,,F,]B,, | %4
 [E,B,E]3- [E,B,E]2 [E,G,]/[E,A,E]/ | [E,B,E]>[E,=A,E][E,B,E] [E,CE]2 [E,B,E] | %6
 [G,_DE] [A,CE]2- [A,CE]2 A,, | B,,B,,B,, B,,2 B,, | [E,G,B,]6 | %9
 [E,G,E]>[E,_G,E][E,=G,E] [E,A,E]2 [E,G,E] | [G,B,E]2 [_G,CE] .[F,B,D]3 | %11
 [B,,B,]2 [B,,B,] [B,,B,]2 [B,,B,] | [E,B,E]6 | .[A,E]>[A,E][A,CF] [G,=B,F]2[K:bass] [D,B,] | %14
[M:7/8] C2 z z z z2 |[M:3/4] [B,,B,]2 [B,,B,] [B,,B,]2 [B,,A,] | [E,G,]6 |] %17
V:3
 x6 | x6 | x6 | x6 | x6 | x6 | x6 | x6 | x6 | x6 | x6 | x6 | x6 | x6 |[M:7/8] z2 G, E3 [EF] | %15
[M:3/4] x6 | x6 |] %17
V:4
 x6 | x6 | x6 | x6 | x6 | x6 | x6 | x6 | x6 | x6 | x6 | x6 | x6 | x5[K:bass] x | %14
[M:7/8] C,3 [C,=A,]3 [C,A,] |[M:3/4] x6 | x6 |] %17

